!!!OTL: ICH STUND AN EINEM MORGEN
!!!ARE: Europa, Mitteleuropa, Deutschland
!!!SCT: Z0073
!!!YEM: Copyright 1995, estate of Helmut Schaffrath.
**kern
*ICvox
*Ivox
*M6/4
*k[f#c#g#]
*A:
{4ee
=1
2a
4dd
2b
4ee
=2
2.b
2a}
{4b
=3
2ccn
4b
2ccn
4dd
=4
2.ee
2r}
{4ee
=5
2a
4dd
2b
4ee
=6
2.b
2a}
{4b
=7
2ccn
4b
2ccn
4dd
=8
2.ee
2r}
{4ee
=9
2ggn
4ffn
2ee
4ffn
=10
2ee
4dd
2ccn}
{4ee
=11
2dd
4ccn
2b
4ee
=12
2.ccn
2b}
{4ee
=13
2dd
4ccn
2dd
4b
=14
2.a
2r}
==
!!!AGN: Sagen - Lied, Romanze
!!!ONB: ESAC (Essen Associative Code) Database: ZUCCAL
!!!AMT: compound duple
!!!AIN: vox
!!!EED: Helmut Schaffrath
!!!EEV: 1.0
*-
